svgs/sharp-light/dong-sign.svg

<svg xmlns="http://www.w3.org/2000/svg" viewBox="0 0 384 512"><!--! Font Awesome Pro 6.6.0 by @fontawesome - https://fontawesome.com License - https://fontawesome.com/license (Commercial License) Copyright 2024 Fonticons, Inc. --><path d="M320 32l-32 0 0 32-96 0 0 32 96 0 0 107.3c-23.5-26.6-57.8-43.3-96-43.3c-70.7 0-128 57.3-128 128s57.3 128 128 128c38.2 0 72.5-16.8 96-43.3l0 43.3 32 0 0-128 0-192 32 0 0-32-32 0 0-32zM96 288a96 96 0 1 1 192 0A96 96 0 1 1 96 288zM384 480l0-32L0 448l0 32 384 0z"/></svg>

<svg xmlns="http://www.w3.org/2000/svg" viewBox="0 0 384 512"><!--! Font Awesome Pro 6.4.2 by @fontawesome - https://fontawesome.com License - https://fontawesome.com/license (Commercial License) Copyright 2023 Fonticons, Inc. --><path d="M320 32H288V64H192V96h96V203.3c-23.5-26.6-57.8-43.3-96-43.3c-70.7 0-128 57.3-128 128s57.3 128 128 128c38.2 0 72.5-16.8 96-43.3V416h32V288 96h32V64H320V32zM96 288a96 96 0 1 1 192 0A96 96 0 1 1 96 288zM384 480V448H0v32H384z"/></svg>
